X:1
T:Celestial Voices, 83.83
T:Celestial Voices, 83.83
T:Richard Francis Lloyd, 1915
T:Public Domain Courtesy of the Cyber Hymnal™
C:Richard Francis Lloyd, 1915
Z:Public Domain
Z:Courtesy of the Cyber Hymnal™
%%score ( 1 2 ) ( 3 4 )
L:1/8
Q:1/4=115
M:4/4
K:F
V:1 treble 
V:2 treble 
V:3 bass 
V:4 bass 
V:1
 [CA]3 [CA] [CG]2 [CA]2 | [B,B]2 [CA]2 D2 [CE]2 | [CF]4 [=B,A]4 | [CG]8 | [CA]3 [CA] [DB]2 [_Ec]2 | %5
 [_Ec]2 [DB]2 [A,F]2 [=B,G]2 | A6 z2 G2 | [A,F]8 |] %8
V:2
 x8 | x4 D2 x2 | x8 | x8 | x8 | x8 | C4 B,4 x2 | x8 |] %8
V:3
 F,3 F, [E,G,]2 F,2 | [D,F,]2 [C,F,]2 [B,,F,]2 [B,,G,]2 | [A,,F,]4 [G,,F,]4 | [C,E,]8 | %4
 F,3 F, F,2 [A,,F,]2 | [B,,F,]2 [B,,F,]2 [D,F,]2 [D,F,]2 | [C,F,]4 [C,E,]4 x2 | [F,,F,]8 |] %8
V:4
 F,3 F, x F,2 x | x8 | x8 | x8 | F,3 F, F,2 x2 | x8 | x10 | x8 |] %8

